epam-assets/icon-sources/18/internal-logo/VCMs.svg

<svg width="18" height="18" viewBox="0 0 18 18" fill="none" xmlns="http://www.w3.org/2000/svg">
<g id="18/internal-logo/VCMs">
<path id="icon" fill-rule="evenodd" clip-rule="evenodd" d="M14.8681 4.92756C14.831 4.79709 14.7459 4.68907 14.6279 4.62294C14.3841 4.48648 14.0752 4.57416 13.939 4.81804L13.3379 5.89469L14.2216 6.38962L14.8227 5.31297C14.8887 5.19477 14.9048 5.05802 14.8681 4.92756ZM13.8452 7.0638L12.9615 6.56886L10.3788 11.1953L11.2625 11.6903L13.8452 7.0638ZM10.7337 12.2552L10.1748 11.9422L10.0756 12.7768L10.7337 12.2552ZM15.7028 7.64731L13.8565 10.9539C13.7884 11.0762 13.6614 11.1454 13.5303 11.1454C13.4688 11.1454 13.4063 11.1301 13.3487 11.0978C13.1691 10.9969 13.1046 10.7692 13.2053 10.5891L14.869 7.60871L14.5087 7.40702L11.7298 12.3848C11.7295 12.3854 11.7289 12.386 11.7286 12.3866C11.719 12.4031 11.708 12.4186 11.696 12.4333C11.6894 12.4417 11.6826 12.4497 11.6751 12.4575C11.6715 12.4614 11.667 12.465 11.6631 12.4689C11.6503 12.4818 11.6366 12.494 11.6216 12.5048L9.83005 13.9253C9.76253 13.9785 9.68067 14.0058 9.59822 14.0058C9.53548 14.0058 9.47305 13.9902 9.41599 13.9585C9.35743 13.9253 9.31053 13.8774 9.27797 13.8217C9.27169 13.8136 9.26452 13.8065 9.25914 13.7978C9.21851 13.7344 9.18476 13.6661 9.14891 13.5997C9.09991 13.5078 9.05002 13.4163 8.99595 13.3274C8.96637 13.2789 8.9359 13.231 8.90274 13.1847C8.90304 13.185 8.89856 13.1775 8.89288 13.1694C8.89169 13.1679 8.89079 13.1673 8.8893 13.1652C8.87406 13.1473 8.85883 13.1287 8.8424 13.111C8.82208 13.1473 8.80266 13.1844 8.78414 13.2215C8.74082 13.307 8.70019 13.3938 8.65299 13.4773C8.54216 13.6739 8.38711 13.8645 8.15797 13.9211C7.87536 13.9911 7.6522 13.8136 7.52224 13.5787C7.47713 13.4971 7.44069 13.4109 7.40006 13.3268C7.39677 13.3202 7.39319 13.3142 7.3902 13.3076C7.31432 13.4444 7.25397 13.5898 7.16345 13.7176C7.01348 13.9289 6.78076 14.1021 6.50681 14.0324C6.33772 13.9896 6.21076 13.8552 6.13756 13.702C5.98789 13.389 5.94577 13.0347 5.87855 12.6978C5.84509 12.5284 5.80984 12.3585 5.75487 12.1945C5.7486 12.1753 5.74173 12.1565 5.73485 12.1373V12.137C5.72649 12.1203 5.71872 12.1038 5.71066 12.0871C5.70827 12.0895 5.70558 12.0918 5.70289 12.0942C5.68377 12.114 5.66674 12.1352 5.64882 12.1559C5.64762 12.1577 5.64643 12.1595 5.64523 12.1613C5.63448 12.1762 5.62432 12.1915 5.61386 12.2068C5.59295 12.2391 5.57294 12.272 5.55352 12.3055C5.5093 12.3827 5.46957 12.4623 5.43253 12.5431C5.42207 12.5655 5.41191 12.588 5.40175 12.6107C5.40026 12.6152 5.39817 12.62 5.39608 12.6245C5.38054 12.6628 5.36501 12.7011 5.35037 12.7397C5.28614 12.9067 5.22908 13.0766 5.1774 13.2481C5.12123 13.4342 5.06865 13.6224 5.02623 13.8125C4.98501 13.9962 4.78335 14.0863 4.61307 14.0474C4.43054 14.0058 4.34032 13.805 4.37855 13.6335C4.38154 13.6188 4.38513 13.6042 4.38871 13.5895C4.45294 13.3199 4.52972 13.0524 4.61934 12.7903C4.75079 12.4066 4.90375 12.0182 5.15828 11.6987C5.40116 11.3943 5.84927 11.239 6.15369 11.5559C6.40135 11.8136 6.46738 12.2178 6.5337 12.5548C6.56865 12.7334 6.59972 12.913 6.64095 13.0901C6.6514 13.1353 6.66305 13.1802 6.6753 13.2248C6.71563 13.1493 6.75298 13.0724 6.79331 12.997C6.89966 12.798 7.05053 12.5922 7.28295 12.538C7.57482 12.4704 7.80157 12.6535 7.93421 12.8971C7.98052 12.9821 8.01816 13.0712 8.06058 13.1583C8.1511 13.003 8.21503 12.8322 8.3169 12.6834C8.46897 12.4614 8.71304 12.3031 8.98938 12.4093C9.13068 12.4638 9.24331 12.55 9.33861 12.6547L9.49754 11.3171C9.49874 11.298 9.50232 11.2791 9.5068 11.2603C9.5077 11.2555 9.5086 11.2507 9.50949 11.2459C9.51218 11.2357 9.51547 11.2259 9.51905 11.2157C9.52562 11.1971 9.53339 11.1789 9.54265 11.1615C9.54295 11.1612 9.54295 11.1606 9.54325 11.1603L12.5044 5.85608C12.5044 5.85579 12.5044 5.85579 12.5047 5.85579L13.2874 4.45327C13.6247 3.84941 14.3892 3.63277 14.9921 3.9706C15.2842 4.13399 15.4951 4.4018 15.586 4.72408C15.6771 5.04665 15.6373 5.38539 15.4739 5.67804L14.8732 6.75439L15.5591 7.13861C15.6454 7.18708 15.709 7.26788 15.7359 7.36303C15.7628 7.45849 15.7509 7.56083 15.7028 7.64731ZM4.54466 9.89277C4.33852 9.89277 4.17152 10.06 4.17152 10.2665C4.17152 10.4727 4.33852 10.6403 4.54466 10.6403H8.28733C8.49316 10.6403 8.66046 10.4727 8.66046 10.2665C8.66046 10.06 8.49316 9.89277 8.28733 9.89277H4.54466ZM10.0783 7.73349C10.0783 7.52701 9.9113 7.35974 9.70517 7.35974H4.54466C4.33852 7.35974 4.17152 7.52701 4.17152 7.73349C4.17152 7.93996 4.33852 8.10723 4.54466 8.10723H9.70517C9.9113 8.10723 10.0783 7.93996 10.0783 7.73349ZM10.8993 5.20076C10.8993 4.99429 10.7323 4.82671 10.5261 4.82671H4.54466C4.33852 4.82671 4.17152 4.99429 4.17152 5.20076C4.17152 5.40723 4.33852 5.5745 4.54466 5.5745H10.5261C10.7323 5.5745 10.8993 5.40723 10.8993 5.20076ZM12.8208 14.2224V14.3636C12.8208 15.1282 12.2 15.75 11.437 15.75H3.63408C2.87079 15.75 2.25 15.1282 2.25 14.3636V3.63636C2.25 2.87181 2.87079 2.25 3.63408 2.25H11.437C12.2 2.25 12.8208 2.87181 12.8208 3.63636C12.8208 3.84253 12.6538 4.0101 12.4476 4.0101C12.2415 4.0101 12.0745 3.84253 12.0745 3.63636C12.0745 3.28386 11.7883 2.99749 11.437 2.99749H3.63408C3.28246 2.99749 2.99626 3.28386 2.99626 3.63636V14.3636C2.99626 14.7158 3.28246 15.0025 3.63408 15.0025H11.437C11.7883 15.0025 12.0745 14.7158 12.0745 14.3636V14.2224C12.0745 14.0159 12.2415 13.8487 12.4476 13.8487C12.6538 13.8487 12.8208 14.0159 12.8208 14.2224Z" fill="#6C6F80"/>
</g>
</svg>

<svg xmlns="http://www.w3.org/2000/svg" width="18" height="18" fill="none" viewBox="0 0 18 18">
  <path fill="#6C6F80" fill-rule="evenodd" d="M14.868 4.928a.505.505 0 0 0-.929-.11l-.601 1.077.884.495.6-1.077a.505.505 0 0 0 .046-.385Zm-1.023 2.136-.884-.495-2.582 4.626.883.495 2.583-4.626Zm-3.111 5.191-.56-.313-.098.835.658-.522Zm4.969-4.608-1.846 3.307a.373.373 0 1 1-.652-.365l1.664-2.98-.36-.202-2.78 4.978v.002a.361.361 0 0 1-.054.07l-.012.012a.332.332 0 0 1-.041.036l-1.792 1.42a.374.374 0 0 1-.414.034.374.374 0 0 1-.138-.137l-.019-.024c-.04-.064-.074-.132-.11-.198a5.522 5.522 0 0 0-.153-.273 2.306 2.306 0 0 0-.103-.158l-.004-.004c-.015-.018-.03-.036-.047-.054-.02.036-.04.073-.058.11-.043.086-.084.173-.131.256-.11.197-.266.387-.495.444-.283.07-.506-.107-.636-.342-.045-.082-.081-.168-.122-.252l-.01-.02c-.076.137-.136.283-.227.41-.15.212-.382.385-.656.315a.587.587 0 0 1-.37-.33c-.15-.313-.191-.667-.258-1.004a4.041 4.041 0 0 0-.124-.504l-.02-.057-.024-.05-.008.007c-.02.02-.036.041-.054.062l-.004.005-.031.046a2.352 2.352 0 0 0-.181.336 4.628 4.628 0 0 0-.037.082 7.214 7.214 0 0 0-.219.624 7.951 7.951 0 0 0-.15.563c-.042.184-.244.274-.414.235-.182-.041-.273-.242-.234-.414l.01-.043c.064-.27.14-.538.23-.8.132-.383.285-.772.54-1.091.242-.305.69-.46.995-.143.247.258.313.662.38.999.035.178.066.358.107.535.01.045.022.09.034.135.04-.076.078-.153.118-.228.107-.199.258-.405.49-.459.292-.068.519.115.651.36.047.084.084.173.127.26.09-.155.154-.326.256-.475.152-.222.396-.38.672-.274a.918.918 0 0 1 .35.246l.159-1.338a.337.337 0 0 1 .009-.057l.002-.014a.394.394 0 0 1 .034-.085l2.961-5.305.783-1.403a1.253 1.253 0 1 1 2.187 1.225l-.6 1.076.685.385a.374.374 0 0 1 .144.508ZM4.545 9.893a.373.373 0 0 0 0 .747h3.742a.374.374 0 0 0 0-.747H4.545Zm5.533-2.16a.373.373 0 0 0-.373-.373h-5.16a.373.373 0 0 0 0 .747h5.16a.373.373 0 0 0 .373-.374Zm.821-2.532a.374.374 0 0 0-.373-.374H4.545a.374.374 0 0 0 0 .747h5.981a.373.373 0 0 0 .373-.373Zm1.922 9.021v.142c0 .764-.621 1.386-1.384 1.386H3.634a1.387 1.387 0 0 1-1.384-1.386V3.636c0-.764.62-1.386 1.384-1.386h7.803c.763 0 1.384.622 1.384 1.386a.374.374 0 1 1-.746 0 .639.639 0 0 0-.638-.639H3.634a.639.639 0 0 0-.638.64v10.727a.64.64 0 0 0 .638.638h7.803a.64.64 0 0 0 .638-.638v-.142a.373.373 0 1 1 .746 0Z" clip-rule="evenodd"/>
</svg>
